symbols/web/escalator_warning/materialsymbolssharp/escalator_warning_gradN25_24px.svg

<svg xmlns="http://www.w3.org/2000/svg" height="24" width="24"><path d="M6.825 6.05q-.8 0-1.375-.575T4.875 4.1q0-.825.575-1.388.575-.562 1.375-.562.825 0 1.388.562.562.563.562 1.388 0 .8-.562 1.375-.563.575-1.388.575Zm10.275 5.2q-.625 0-1.062-.438-.438-.437-.438-1.062t.438-1.062q.437-.438 1.062-.438t1.063.438q.437.437.437 1.062t-.437 1.062q-.438.438-1.063.438ZM4.825 21.8V15H3.2V7.1h6.2l3.65 7.55 1.8-2.4H20v5.075h-1V21.8h-4v-7.025l-1.2 1.6h-2.025L9.5 11.6v10.2Z"/></svg>

<svg xmlns="http://www.w3.org/2000/svg" height="24" width="24"><path d="M6.825 6.05Q6.025 6.05 5.45 5.475Q4.875 4.9 4.875 4.1Q4.875 3.275 5.45 2.712Q6.025 2.15 6.825 2.15Q7.65 2.15 8.213 2.712Q8.775 3.275 8.775 4.1Q8.775 4.9 8.213 5.475Q7.65 6.05 6.825 6.05ZM17.1 11.25Q16.475 11.25 16.038 10.812Q15.6 10.375 15.6 9.75Q15.6 9.125 16.038 8.688Q16.475 8.25 17.1 8.25Q17.725 8.25 18.163 8.688Q18.6 9.125 18.6 9.75Q18.6 10.375 18.163 10.812Q17.725 11.25 17.1 11.25ZM4.825 21.8V15H3.2V7.1H9.4L13.05 14.65L14.85 12.25H20V17.325H19V21.8H15V14.775L13.8 16.375H11.775L9.5 11.6V21.8Z"/></svg>
